src/assets/svg/facebook.svg

<svg width="22.75" height="22.672" fill="none" xmlns="http://www.w3.org/2000/svg">
  <path d="M22.74 11.37c0 2.78-1.02 5.46-2.86 7.54a11.386 11.386 0 0 1-7.15 3.75c-.06.01-.12 0-.18-.02a.367.367 0 0 1-.16-.09.418.418 0 0 1-.11-.15.471.471 0 0 1-.04-.17v-8.24h2.63c.12 0 .24-.02.35-.07.11-.05.21-.12.29-.2a.824.824 0 0 0 .23-.66.836.836 0 0 0-.29-.58.853.853 0 0 0-.61-.24h-2.6V9.62c0-.47.19-.91.52-1.24.33-.33.77-.51 1.23-.51h1.75c.12 0 .24-.03.35-.07.11-.05.21-.12.3-.21.08-.09.14-.19.18-.3.04-.11.06-.23.05-.35a.88.88 0 0 0-.29-.59.926.926 0 0 0-.61-.23h-1.73c-.92 0-1.81.37-2.47 1.02-.66.66-1.03 1.55-1.03 2.48v2.62H7.87c-.12 0-.24.03-.35.08-.11.04-.21.11-.29.2-.08.09-.15.19-.19.3-.04.12-.05.24-.05.36.02.22.13.43.3.58.16.15.38.24.61.23h2.59v8.24a.38.38 0 0 1-.03.18c-.03.05-.06.1-.11.15-.05.04-.1.07-.16.09-.06.02-.12.02-.18.01-2.83-.34-5.43-1.74-7.29-3.91A11.427 11.427 0 0 1 0 10.94C.22 5.03 5.01.23 10.92 0c1.53-.06 3.05.19 4.48.74a11.334 11.334 0 0 1 6.43 6.17c.6 1.41.91 2.93.91 4.46Z" fill="#FCFCFC"/>
</svg>

<svg width="22.749939" height="22.672363" viewBox="0 0 22.7499 22.6724" fill="none" xmlns="http://www.w3.org/2000/svg" xmlns:xlink="http://www.w3.org/1999/xlink">
	<desc>
			Created with Pixso.
	</desc>
	<defs/>
	<path id="Vector" d="M22.74 11.37C22.74 14.15 21.72 16.83 19.88 18.91C18.03 20.99 15.49 22.33 12.73 22.66C12.67 22.67 12.61 22.66 12.55 22.64C12.49 22.63 12.44 22.59 12.39 22.55C12.34 22.51 12.31 22.46 12.28 22.4C12.26 22.35 12.24 22.29 12.24 22.23L12.24 13.99L14.87 13.99C14.99 13.99 15.11 13.97 15.22 13.92C15.33 13.87 15.43 13.8 15.51 13.72C15.59 13.63 15.66 13.53 15.7 13.41C15.74 13.3 15.75 13.18 15.74 13.06C15.73 12.84 15.62 12.63 15.45 12.48C15.29 12.32 15.07 12.24 14.84 12.24L12.24 12.24L12.24 9.62C12.24 9.15 12.43 8.71 12.76 8.38C13.09 8.05 13.53 7.87 13.99 7.87L15.74 7.87C15.86 7.87 15.98 7.84 16.09 7.8C16.2 7.75 16.3 7.68 16.39 7.59C16.47 7.5 16.53 7.4 16.57 7.29C16.61 7.18 16.63 7.06 16.62 6.94C16.6 6.71 16.5 6.5 16.33 6.35C16.16 6.2 15.94 6.12 15.72 6.12L13.99 6.12C13.07 6.12 12.18 6.49 11.52 7.14C10.86 7.8 10.49 8.69 10.49 9.62L10.49 12.24L7.87 12.24C7.75 12.24 7.63 12.27 7.52 12.32C7.41 12.36 7.31 12.43 7.23 12.52C7.15 12.61 7.08 12.71 7.04 12.82C7 12.94 6.99 13.06 6.99 13.18C7.01 13.4 7.12 13.61 7.29 13.76C7.45 13.91 7.67 14 7.9 13.99L10.49 13.99L10.49 22.23C10.5 22.29 10.48 22.35 10.46 22.41C10.43 22.46 10.4 22.51 10.35 22.56C10.3 22.6 10.25 22.63 10.19 22.65C10.13 22.67 10.07 22.67 10.01 22.66C7.18 22.32 4.58 20.92 2.72 18.75C0.87 16.58 -0.1 13.79 0 10.94C0.22 5.03 5.01 0.23 10.92 0C12.45 -0.06 13.97 0.19 15.4 0.74C16.84 1.28 18.14 2.11 19.25 3.17C20.35 4.23 21.23 5.5 21.83 6.91C22.43 8.32 22.74 9.84 22.74 11.37Z" fill="#FCFCFC" fill-opacity="1.000000" fill-rule="nonzero"/>
</svg>
